X: 41979
T: Walls Of Enniscorthy, The
R: jig
M: 6/8
K: Gmajor
|:B3 Bdc|~B3 AGF|DGG AGF|AGG Adc|
B3 Bdc|~B3 AGE|FGA/B/ cAG|FDE FGA:|
|:~B3 ~c3|BGG ABd|g3 gdB|dgg fdc|
~B3 ~c3|BGG ABd|fef gdB|EDE FGA:|

